X:177
T:Royal Irish Quadrille No. 1. Le4.177
T:Black Joke,aka. Le4.177
Q:3/8=100
L:1/8
B:L.Leadley MS#4 c1850
Z:vmp.Mike Hicken 2016 www.village-music-project.org.uk
N: * This is not shown as a semi-quaver but has been changed to match the preceeding dotted quaver.
N: ** In the original there is a bar here containing 2 quaver rests which has been omitted.
M:6/8
K:C
G|Gcc cBc|d>"*"ed dcB|ceg gfe|dfe dcB|
c>de A>Bc|G>cB cde|c>de A>Bc|GcB c !fermata!||
gf|ece geg |afa g2 f/e/|ece geg|afa g2e|
ceg gfe|dfe dcB|c>de A>Bc|GcB c2G||
"**"|A2z c2z|Bfe dcB|c>Bc c>Bc|B^GB e2z |
A2z c2z|Bfe dcB|c>BA B>A^G|ABA A=GG "_Decapo"|]

